icons/desktop/16/svg/off-16.svg

<svg width="16" height="16" viewBox="0 0 16 16" fill="none" xmlns="http://www.w3.org/2000/svg">
<path d="M10.75 2.56445C13.2459 3.63549 15 6.11606 15 9C15 12.859 11.86 16 8 16C4.14 16 1 12.859 1 9C1 6.11606 2.75409 3.63549 5.25 2.56445V4.24414C3.60903 5.19715 2.5 6.97003 2.5 9C2.5 12.032 4.967 14.5 8 14.5C11.033 14.5 13.5 12.032 13.5 9C13.5 6.97003 12.391 5.19715 10.75 4.24414V2.56445Z" fill="black"/>
<path d="M8 1C8.41421 1 8.75 1.33579 8.75 1.75V6.25C8.75 6.66421 8.41421 7 8 7C7.58579 7 7.25 6.66421 7.25 6.25V1.75C7.25 1.33579 7.58579 1 8 1Z" fill="black"/>
</svg>

<!-- This Source Code Form is subject to the terms of the Mozilla Public
   - License, v. 2.0. If a copy of the MPL was not distributed with this
   - file, You can obtain one at http://mozilla.org/MPL/2.0/. -->
<svg xmlns="http://www.w3.org/2000/svg" width="16" height="16" fill="context-fill" fill-opacity="context-fill-opacity" viewBox="0 0 16 16">
    <path d="M10.75 2.564A7.01 7.01 0 0 1 15 9c0 3.859-3.14 7-7 7s-7-3.141-7-7a7.01 7.01 0 0 1 4.25-6.436v1.68A5.5 5.5 0 0 0 2.5 9c0 3.032 2.467 5.5 5.5 5.5s5.5-2.468 5.5-5.5a5.5 5.5 0 0 0-2.75-4.756z" />
    <path d="M8 1a.75.75 0 0 1 .75.75v4.5a.75.75 0 0 1-1.5 0v-4.5A.75.75 0 0 1 8 1" />
</svg>
